lib/svgs/netease.svg

<?xml version="1.0" encoding="UTF-8" standalone="no"?>
<svg width="20px" height="20px" viewBox="0 0 20 20" version="1.1" xmlns="http://www.w3.org/2000/svg" xmlns:xlink="http://www.w3.org/1999/xlink">
    <defs></defs>
    <g id="Icons" stroke="none" stroke-width="1" fill="none" fill-rule="evenodd">
        <g id="Web" transform="translate(-481.000000, -988.000000)" fill="#000000">
            <g id="brand/netease" transform="translate(481.000000, 988.000000)">
                <path d="M5.33630941,16.9960878 C5.17296446,16.8323353 4.79191916,16.6685828 4.73742439,16.4229541 C4.71024669,16.1774651 4.98244181,15.6862076 5.20014216,15.6315768 C7.81338258,15.1677046 9.74620488,13.4211976 11.8149157,11.9475649 C11.8965882,11.8930739 12.0054383,11.7838124 12.0871108,11.7565669 C12.3049505,11.7293214 12.5226509,11.7838124 12.7404906,11.7838124 C12.6859958,11.9748104 12.6859958,12.2478244 12.5771456,12.3569461 C11.9782606,12.9299401 11.3250202,13.4211976 10.7533129,13.9943313 C9.39219791,15.3314571 7.6773547,16.1228343 5.93519443,16.8323353 C5.79902718,16.8869661 5.6629993,16.9142116 5.33630941,16.9960878 M10.3177728,15.1677046 C11.0800028,15.1949501 11.787738,15.3587026 12.4682955,15.2495808 C13.5298983,15.0858283 14.2648111,14.3216966 14.7003512,13.3665669 C15.2448808,12.2204391 14.7003512,11.3199401 13.4482258,11.1834331 C13.2848808,11.1561876 13.0943582,11.0198204 13.0126857,10.8833134 C12.4682955,10.0919361 11.9510829,10.0373054 11.188853,10.6376846 C9.90941045,11.6474451 8.63010732,12.6570659 7.29617003,13.5577046 C6.58843484,14.0215768 5.77184948,14.2944511 4.95512474,14.4854491 C4.71024669,14.5673253 4.32906202,14.2125749 4.0025115,14.0215768 C4.24738955,13.8031936 4.46522927,13.3939521 4.73742439,13.3393214 C6.91512474,12.9573253 8.54843484,11.5655689 10.3177728,10.3920559 C10.426623,10.3101796 10.3994453,10.0373054 10.5082955,9.90093812 C10.6716404,9.65530938 10.8621631,9.21868263 11.0526857,9.21868263 C12.3321282,9.21868263 13.6387484,9.19143713 14.7276683,10.1465669 C16.2519889,11.4018164 16.714846,14.1580838 14.3193059,15.7953293 C13.7204209,16.1774651 13.0671805,16.5048303 12.386623,16.7504591 C11.188853,17.1870858 10.3449505,16.5048303 10.3177728,15.1677046 M11.0526857,6.38053892 C10.1816056,6.43516966 9.33784251,6.51704591 8.46676237,6.51704591 C8.24892265,6.51704591 8.0040446,6.24417166 7.78620488,6.08041916 C8.0040446,5.88942116 8.22174495,5.56191617 8.46676237,5.53467066 C9.31052544,5.48003992 10.1816056,5.53467066 11.025508,5.50728543 C11.4883652,5.48003992 12.0599331,5.34367265 12.0599331,5.99854291 C12.0599331,6.18954092 11.4883652,6.38053892 11.1616753,6.57167665 L11.0526857,6.38053892 M8.19456725,9.13680639 C7.29617003,9.08217565 6.50676237,9.1640519 5.98954983,8.26355289 C5.6629993,7.69041916 5.47233728,5.23441118 5.82620488,4.71590818 C5.96237213,4.55229541 6.20738955,4.38854291 6.37073449,4.41578842 C6.53407944,4.44303393 6.75177979,4.71590818 6.75177979,4.90704591 C6.80627456,5.4255489 6.72460209,5.94391218 6.75177979,6.46241517 C6.77895749,7.49942116 7.32348711,7.99067864 8.27623972,7.9360479 C9.63721533,7.85417166 10.9983303,7.77229541 12.3321282,7.66317365 C13.2032084,7.60854291 13.584393,7.14467066 13.4754035,6.2988024 C13.2577031,4.55229541 12.8221631,4.11552894 11.0526857,4.14291417 C9.99108293,4.14291417 8.95665784,4.30666667 7.89505505,4.33391218 C7.56836516,4.36115768 7.24181463,4.14291417 6.94230244,4.00640719 C7.18731986,3.76077844 7.43233728,3.37878244 7.7317101,3.29690619 C9.52836516,2.83303393 11.3521979,2.9694012 13.1215359,3.48790419 C13.6115707,3.62441118 14.1287833,4.19740519 14.3193059,4.71590818 C14.5643233,5.45279441 14.591501,6.2988024 14.6186787,7.11742515 C14.6459958,8.04530938 14.0742885,8.67293413 13.148853,8.72742515 C12.1961003,8.8093014 11.2160307,8.8093014 10.2361003,8.86393214 C10.0184,8.86393214 9.7188878,8.94580838 9.61003763,9.10956088 C8.52111777,10.7195609 6.88794704,11.4018164 5.06411429,11.6746906 C4.76460209,11.7293214 4.38355679,11.5383234 4.0568669,11.4018164 C4.0025115,11.3745709 3.97519443,10.9651896 4.0296892,10.9379441 C4.35637909,10.8014371 4.71024669,10.6376846 5.03679721,10.6376846 C6.31623972,10.5831936 7.29617003,9.98281437 8.19456725,9.13680639" id="Shape"></path>
            </g>
        </g>
    </g>
</svg>

<svg xmlns="http://www.w3.org/2000/svg" viewBox="0 0 20 20">
    <path fill="#000" fill-rule="evenodd" d="M5.336 16.996c-.163-.164-.544-.327-.599-.573-.027-.246.245-.737.463-.791 2.613-.464 4.546-2.21 6.615-3.684.082-.055.19-.164.272-.191.218-.028.436.027.653.027-.054.19-.054.464-.163.573-.599.573-1.252 1.064-1.824 1.637-1.36 1.337-3.076 2.129-4.818 2.838-.136.055-.272.082-.599.164m4.982-1.828c.762.027 1.47.19 2.15.082 1.062-.164 1.797-.928 2.232-1.883.545-1.147 0-2.047-1.252-2.184a.71.71 0 0 1-.435-.3c-.545-.791-1.062-.846-1.824-.245a65.802 65.802 0 0 1-3.893 2.92 7.249 7.249 0 0 1-2.34.927c-.246.082-.627-.272-.953-.463.244-.219.462-.628.734-.683 2.178-.382 3.811-1.773 5.58-2.947.11-.082.082-.355.191-.491.164-.246.354-.682.545-.682 1.28 0 2.586-.028 3.675.928a3.47 3.47 0 0 1-.409 5.648 9.8 9.8 0 0 1-1.932.955c-1.198.437-2.042-.245-2.07-1.582m.736-8.787c-.871.054-1.715.136-2.586.136-.218 0-.463-.273-.68-.437.217-.19.435-.518.68-.545.844-.055 1.715 0 2.559-.028.462-.027 1.034-.163 1.034.492 0 .19-.572.382-.898.573l-.11-.191M8.196 9.137c-.899-.055-1.688.027-2.205-.873-.327-.574-.518-3.03-.164-3.548.136-.164.381-.327.545-.3.163.027.38.3.38.491.055.519-.026 1.037 0 1.555.028 1.037.572 1.529 1.525 1.474 1.361-.082 2.722-.164 4.056-.273.871-.054 1.252-.518 1.143-1.364-.217-1.747-.653-2.183-2.422-2.156-1.062 0-2.096.164-3.158.19-.327.028-.653-.19-.953-.327.245-.245.49-.627.79-.71 1.796-.463 3.62-.327 5.39.192.49.136 1.007.71 1.197 1.228.245.737.273 1.583.3 2.401.027.928-.545 1.556-1.47 1.61-.953.082-1.933.082-2.913.137-.218 0-.517.082-.626.246-1.089 1.61-2.722 2.292-4.546 2.565-.3.054-.68-.137-1.007-.273-.054-.027-.082-.437-.027-.464.326-.137.68-.3 1.007-.3 1.28-.055 2.26-.655 3.158-1.501"/>
</svg>
